lib/flags/l/226.svg

<svg xmlns="http://www.w3.org/2000/svg" fill="none" viewBox="0 0 32 24"><mask id="226_svg__a" width="32" height="24" x="0" y="0" mask-type="alpha" maskUnits="userSpaceOnUse"><path fill="#fff" d="M0 0H32V24H0z"/></mask><g mask="url(#226_svg__a)"><path fill="#F7FCFF" fill-rule="evenodd" d="M0 0V24H32V0H0Z" clip-rule="evenodd"/><mask id="226_svg__b" width="32" height="24" x="0" y="0" mask-type="alpha" maskUnits="userSpaceOnUse"><path fill="#fff" fill-rule="evenodd" d="M0 0V24H32V0H0Z" clip-rule="evenodd"/></mask><g fill-rule="evenodd" clip-rule="evenodd" mask="url(#226_svg__b)"><path fill="#009D00" d="M0 0V8H32V0H0Z"/><path fill="#fff" d="M0 8V16H32V8H0Z"/><path fill="#F80000" d="M0 16V24H32V16H0Z"/></g><path fill="#0075D5" fill-rule="evenodd" d="M0 0V24L8 12.152L0 0Z" clip-rule="evenodd"/><mask width="8" height="24" x="0" y="0" mask-type="alpha" maskUnits="userSpaceOnUse"><path fill="#fff" fill-rule="evenodd" d="M0 0V24L8 12.152L0 0Z" clip-rule="evenodd"/></mask><path fill="#FFD500" stroke="#000" stroke-width=".05" d="M14.5702 8.88296 14.5573 8.88586 14.5477 8.87694 14.341 8.68601 14.3152 8.9662 14.314 8.97928 14.3025 8.98571 14.057 9.12327 14.3155 9.23442 14.3276 9.23962 14.3302 9.25251 14.3852 9.52846 14.5707 9.31697 14.5794 9.30709 14.5925 9.30863 14.8719 9.34161 14.7281 9.09975 14.7214 9.08845 14.7269 9.07652 14.8446 8.82095 14.5702 8.88296zM15.5702 8.88296 15.5573 8.88586 15.5477 8.87694 15.341 8.68601 15.3152 8.9662 15.314 8.97928 15.3025 8.98571 15.057 9.12327 15.3155 9.23442 15.3276 9.23962 15.3302 9.25251 15.3852 9.52846 15.5707 9.31697 15.5794 9.30709 15.5925 9.30863 15.8719 9.34161 15.7281 9.09975 15.7214 9.08845 15.7269 9.07652 15.8446 8.82095 15.5702 8.88296zM16.5702 8.88296 16.5573 8.88586 16.5477 8.87694 16.341 8.68601 16.3152 8.9662 16.314 8.97928 16.3025 8.98571 16.057 9.12327 16.3155 9.23442 16.3276 9.23962 16.3302 9.25251 16.3852 9.52846 16.5707 9.31697 16.5794 9.30709 16.5925 9.30863 16.8719 9.34161 16.7281 9.09975 16.7214 9.08845 16.7269 9.07652 16.8446 8.82095 16.5702 8.88296zM17.5702 8.88296 17.5573 8.88586 17.5477 8.87694 17.341 8.68601 17.3152 8.9662 17.314 8.97928 17.3025 8.98571 17.057 9.12327 17.3155 9.23442 17.3276 9.23962 17.3302 9.25251 17.3852 9.52846 17.5707 9.31697 17.5794 9.30709 17.5925 9.30863 17.8719 9.34161 17.7281 9.09975 17.7214 9.08845 17.7269 9.07652 17.8446 8.82095 17.5702 8.88296zM18.5702 8.88296 18.5573 8.88586 18.5477 8.87694 18.341 8.68601 18.3152 8.9662 18.314 8.97928 18.3025 8.98571 18.057 9.12327 18.3155 9.23442 18.3276 9.23962 18.3302 9.25251 18.3852 9.52846 18.5707 9.31697 18.5794 9.30709 18.5925 9.30863 18.8719 9.34161 18.7281 9.09975 18.7214 9.08845 18.7269 9.07652 18.8446 8.82095 18.5702 8.88296zM19.5702 8.88296 19.5573 8.88586 19.5477 8.87694 19.341 8.68601 19.3152 8.9662 19.314 8.97928 19.3025 8.98571 19.057 9.12327 19.3155 9.23442 19.3276 9.23962 19.3302 9.25251 19.3852 9.52846 19.5707 9.31697 19.5794 9.30709 19.5925 9.30863 19.8719 9.34161 19.7281 9.09975 19.7214 9.08845 19.7269 9.07652 19.8446 8.82095 19.5702 8.88296z"/><path stroke="#373737" stroke-width=".1" d="M15.05 10.05H18.95V13C18.95 14.077 18.077 14.95 17 14.95C15.923 14.95 15.05 14.077 15.05 13V10.05Z"/><path fill="#6F3E1D" fill-rule="evenodd" d="M16.7264 11.9599C16.7264 11.9599 16.5247 14.3252 16.3234 14.4685C16.122 14.6118 17.2883 14.6834 17.3997 14.576C17.5112 14.4685 16.8911 12.5411 17.1044 11.9599C17.3177 11.3787 17.6613 11.3316 17.6613 11.3316C17.6613 11.3316 17.2282 11.24 17.1044 11.4144C16.9807 11.5888 16.6116 11.3316 16.6116 11.3316L16.7264 11.9599Z" clip-rule="evenodd"/><path fill="#009D29" fill-rule="evenodd" d="M16.6823 11.8261H16.5271C16.5271 11.8261 16.422 12.2369 16.181 12.0315C15.94 11.8261 15.6 11.8985 15.6 11.8985C15.6 11.8985 15.6305 11.6528 16.0005 11.555C16.3705 11.4573 16.5271 10.6639 16.5271 10.6639C16.5271 10.6639 17.0507 10.469 17.3692 10.8684C17.6878 11.2678 18.1366 11.0974 18.1366 11.0974C18.1366 11.0974 18.4646 11.2839 18.3006 11.555C18.1366 11.8261 17.8568 12.0245 17.613 11.8261C17.3692 11.6278 16.6823 11.8261 16.6823 11.8261Z" clip-rule="evenodd"/></g></svg>

<svg xmlns="http://www.w3.org/2000/svg" fill="none" viewBox="0 0 32 24"><mask id="226_svg__a" width="32" height="24" x="0" y="0" maskUnits="userSpaceOnUse"><path fill="#fff" d="M0 0h32v24H0z"/></mask><g mask="url(#226_svg__a)"><path fill="#F7FCFF" fill-rule="evenodd" d="M0 0v24h32V0H0z" clip-rule="evenodd"/><mask id="226_svg__b" width="32" height="24" x="0" y="0" maskUnits="userSpaceOnUse"><path fill="#fff" fill-rule="evenodd" d="M0 0v24h32V0H0z" clip-rule="evenodd"/></mask><g fill-rule="evenodd" clip-rule="evenodd" mask="url(#226_svg__b)"><path fill="#009D00" d="M0 0v8h32V0H0z"/><path fill="#fff" d="M0 8v8h32V8H0z"/><path fill="#F80000" d="M0 16v8h32v-8H0z"/></g><path fill="#0075D5" fill-rule="evenodd" d="M0 0v24l8-11.848L0 0z" clip-rule="evenodd"/><path fill="#FFD500" stroke="#000" stroke-width=".05" d="M14.57 8.883l-.013.003-.01-.01-.206-.19-.026.28-.001.013-.011.007-.246.137.258.111.013.006.002.012.055.276.186-.211.008-.01.013.002.28.033-.144-.242-.007-.012.006-.012.118-.255-.275.062zm1 0l-.013.003-.01-.01-.206-.19-.026.28-.001.013-.011.007-.246.137.258.111.013.006.002.012.055.276.186-.211.008-.01.013.002.28.033-.144-.242-.007-.012.006-.012.118-.255-.275.062zm1 0l-.013.003-.01-.01-.206-.19-.026.28-.001.013-.012.007-.245.137.259.111.012.006.002.012.055.276.186-.211.008-.01.014.002.279.033-.144-.242-.007-.012.006-.012.118-.255-.275.062zm1 0l-.013.003-.01-.01-.206-.19-.026.28-.001.013-.012.007-.245.137.259.111.012.006.002.012.055.276.186-.211.008-.01.014.002.279.033-.144-.242-.007-.012.006-.012.118-.255-.275.062zm1 0l-.013.003-.01-.01-.206-.19-.026.28-.001.013-.012.007-.245.137.259.111.012.006.002.012.055.276.186-.211.008-.01.014.002.279.033-.144-.242-.007-.012.006-.012.118-.255-.275.062zm1 0l-.013.003-.01-.01-.206-.19-.026.28-.001.013-.012.007-.245.137.259.111.012.006.002.012.055.276.186-.211.008-.01.014.002.279.033-.144-.242-.007-.012.006-.012.118-.255-.275.062z"/><path stroke="#373737" stroke-width=".1" d="M15.05 10.05h3.9V13a1.95 1.95 0 11-3.9 0v-2.95z"/><path fill="#6F3E1D" fill-rule="evenodd" d="M16.726 11.96s-.201 2.365-.403 2.508c-.201.144.965.215 1.077.108.111-.107-.509-2.035-.296-2.616.214-.581.557-.629.557-.629s-.433-.091-.557.083c-.123.175-.492-.082-.492-.082l.114.628z" clip-rule="evenodd"/><path fill="#009D29" fill-rule="evenodd" d="M16.682 11.826h-.155s-.105.41-.346.205-.581-.132-.581-.132.03-.246.4-.344c.37-.098.527-.891.527-.891s.524-.195.842.204c.319.4.768.23.768.23s.328.186.164.457-.444.47-.688.271c-.244-.198-.93 0-.93 0z" clip-rule="evenodd"/></g></svg>
